!!!OTL@@DE: Cl&auml;rchens Lied im "Egmont"
!!!COM: Reichardt, Joh. Friedrich
!!!ODT: 1798
!!!OMD: Langsam und innig
!!!LYR: Goethe, Wolfgang von
!!!LDT: 1788
!!!OCL: Erk, Ludwig
!!!GCO: Deutscher Liederschatz, Band 1
**kern	**kern	**kern
*staff3	*staff2	*staff1
*Ipiano	*Ipiano	*Ivox
=1-	=1-	=1-
*clefF4	*clefF4	*clefG2
*Ipiano	*Ipiano	*Ivox
*k[]	*k[]	*k[]
*C:	*C:	*C:
*M2/4	*M2/4	*M2/4
*MM60	*MM60	*MM60
4CC/	16E\LL	(8.cc/L
.	16G\	.
.	16c\	.
.	16G\JJ	16g/Jk)
4r	16E\LL	8.g/
.	16G\	.
.	16c\	.
.	16G\JJ	16g/
=2	=2	=2
4C/	16E\LL	(8.g/L
.	16G\	.
.	16c\	.
.	16G\JJ	16e/Jk)
4r	16E\LL	8.e/
.	16G\	.
.	16c\	.
.	16G\JJ	16e/
=3	=3	=3
2GG/ 2D/	16F\LL	8g/L
.	16G\	.
.	16B\	8f/J
.	16G\JJ	.
.	16F\LL	8d/
.	16G\	.
.	16B\	8B/
.	16G\JJ	.
=4	=4	=4
4C/	16E\LL	4c/
.	16G\	.
.	16c\	.
.	16G\JJ	.
4r	16E\LL	4r
.	16G\	.
.	16c\	.
.	16G\JJ	.
=5	=5	=5
4AA/	16E\LL	(8.cc/L
.	16A\	.
.	16c\	.
.	16A\JJ	16a/Jk)
4r	16E\LL	8.a/
.	16A\	.
.	16c\	.
.	16A\JJ	16a/
=6	=6	=6
4AA/	16E\LL	(8.a/L
.	16A\	.
.	16c\	.
.	16A\JJ	16e/Jk)
4r	16E\LL	8.e/
.	16A\	.
.	16c\	.
.	16A\JJ	16e/
=7	=7	=7
2EE/ 2BB/	16E\LL	4e/
.	16G#\	.
.	16d\	.
.	16G#\JJ	.
.	16E\LL	8f#/
.	16G#\	.
.	16d\	8g#/
.	16G#\JJ	.
=8	=8	=8
4AA/	16E\LL	4.a/
.	16A\	.
.	16c\	.
.	16A\JJ	.
4r	16E\LL	.
.	16A\	.
.	16c\	8r
.	16A\JJ	.
*	*clefG2	*
=9	=9	=9
2F\	16B/LL	4gn/
.	16d/	.
.	16g/	.
.	16d/JJ	.
.	16B/LL	8a/
.	16d/	.
.	16g/	8b\
.	16d/JJ	.
=10	=10	=10
2E\	16c/LL	(8.cc/L
.	16e/	.
.	16g/	.
.	16e/JJ	16g/Jk)
.	16c/LL	8.g/
.	16e/	.
.	16g/	.
.	16e/JJ	16g/
=11	=11	=11
2BB/	16G/LL	(8.g/L
.	16d/	.
.	16g/	.
.	16d/JJ	16f#/Jk)
.	16G/LL	8.fn/
.	16d/	.
.	16f/	.
.	16d/JJ	16f/
=12	=12	=12
2C/	16G/LL	4e/
.	16c/	.
.	16e/	.
.	16c/JJ	.
.	16G/LL	4r
.	16c/	.
.	16e/	.
.	16c/JJ	.
=13	=13	=13
2C/	16G/LL	4cc\
.	16c/	.
.	16e/	.
.	16c/JJ	.
.	16G/LL	8b\
.	16c/	.
.	16e/	8cc\
.	16c/JJ	.
=14	=14	=14
2BB/	16G/LL	4dd\
.	16d/	.
.	16f/	.
.	16d/JJ	.
.	16G/LL	16cc\LL
.	16d/	16b\JJ
.	16f/	16a/LL
.	16d/JJ	16g/JJ
*	*clefF4	*
=15	=15	=15
4C/	16G\LL	4ee\
.	16c\	.
.	16e\	.
.	16c\JJ	.
4GG/	16F\LL	8.dd\
.	16B\	.
.	16d\	.
.	16B\JJ	16b\
=16	=16	=16
4CC/	16E\LL	4.cc\
.	16G\	.
.	16c\	.
.	16G\JJ	.
4r	16E\LL	.
.	16G\	.
.	16c\	8r
.	16G\JJ	.
=17	=17	=17
2CC/ 2C/	16G\LL	4cc\
.	16c\	.
.	16e\	.
.	16c\JJ	.
.	16G\LL	16dd\LL
.	16c\	16cc\JJ
.	16e\	16b\LL
.	16c\JJ	16cc\JJ
=18	=18	=18
2BBB/ 2BB/	16G\LL	4dd\
.	16d\	.
.	16f\	.
.	16d\JJ	.
.	16G\LL	16cc\LL
.	16d\	16b\JJ
.	16f\	16a/LL
.	16d\JJ	16g/JJ
=19	=19	=19
4CC/ 4C/	16G\LL	[4ee\
.	16c\	.
.	16e\	.
.	16c\JJ	.
4GGG/ 4GG/	16F\LL	16ee\LL]
.	16B\	16ff\JJ
.	16d\	16dd\
.	16B\JJ	16b\
=20	=20	=20
[4CC/ [4C/	16E\LL	4.cc\
.	16G\	.
.	16c\	.
.	16G\JJ	.
8CC/] 8C/]	8E\ 8c\	.
8r	8r	8r
==	==	==
*-	*-	*-
!!!ENC: Craig Stuart Sapp
!!!END: 2004/05/26/
!!!EFL: 045/651
